X:41
T:Queen Of The West, The
M:4/4
L:1/8
R:hornpipe
D:Drops Of Springwater by Karen Tweed
D:Fiddler's Fancy by Tommy Peoples
D:Sharon Shannon by Sharon Shannon
D:Sparks On The Flags by The Bridge Ceili Band
K: Dmaj
FE|:D>FAF DFA,2|"A"EGAG (3EFE A,E|"D"FAdF "D#dim"GBec|"A"Adfd (3cBA 
(3GFE|
"D"DFAF DFA,2|"A"EGAG (3EFE A,E|"D"FAdA "A"Ggec||1 "D"d2dcd2 
FE:|2"D"d2dcd2dfgf||
"A"ec (3AcA EAce|"D"fd (3AdA FAdf|"G"(3gfg fg "D"efdf|1"E"(3efe (3dcB 
"A" ABcd|
"A"ec (3AcA EAce|"D"fd (3AdA FAdf|"G"gbag "A"fdec|(3ded ce 
"D"d2gf:|2"E"(3e^de f^g "A"a2 (3efg|
"A"aece (3Ace ge|"D"fdAF D2 ef|"G"gbag "A"fdec|(3ded AF "D"D2:||
